svg/format_wrap_square.svg

<svg xmlns="http://www.w3.org/2000/svg" viewBox="0 0 24 24"><path d="m12 7 5 10H7zM3 3h18v2H3zm0 4h3v2H3zm18 0v2h-3V7zM3 11h3v2H3zm18 0v2h-3v-2zM3 15h3v2H3zm18 0v2h-3v-2zM3 19h18v2H3z"/></svg>

<?xml version="1.0" encoding="UTF-8"?><!DOCTYPE svg PUBLIC "-//W3C//DTD SVG 1.1//EN" "http://www.w3.org/Graphics/SVG/1.1/DTD/svg11.dtd"><svg xmlns="http://www.w3.org/2000/svg" xmlns:xlink="http://www.w3.org/1999/xlink" version="1.1" id="mdi-format-wrap-square" width="24" height="24" viewBox="0 0 24 24"><path d="M12,7L17,17H7L12,7M3,3H21V5H3V3M3,7H6V9H3V7M21,7V9H18V7H21M3,11H6V13H3V11M21,11V13H18V11H21M3,15H6V17H3V15M21,15V17H18V15H21M3,19H21V21H3V19Z" /></svg>
